; generated by Slic3r 1.3.1-dev on 2019-07-03 at 21:26:12

; external perimeters extrusion width = 0.33mm (2.01mm^3/s)
; perimeters extrusion width = 0.35mm (4.24mm^3/s)
; infill extrusion width = 0.35mm (5.65mm^3/s)
; solid infill extrusion width = 0.35mm (1.41mm^3/s)
; top infill extrusion width = 0.35mm (1.06mm^3/s)

M107
M104 S205 ; set temperature
G28 ; home all axes
G1 Z5 F5000 ; lift nozzle

; Filament gcode

M109 S205 ; set temperature and wait for it to be reached
G21 ; set units to millimeters
G90 ; use absolute coordinates
M82 ; use absolute distances for extrusion
G92 E0
G92 E0
G1 Z0.240 F7800.000
G1 E-2.00000 F2400.00000
G92 E0
G1 X50.697 Y19.330 F7800.000
G1 E2.00000 F2400.00000
G1 F1800
G1 X50.959 Y18.651 E2.02894
G1 X51.402 Y17.808 E2.06679
G1 X51.918 Y17.028 E2.10399
G1 X52.594 Y16.248 E2.14502
G1 X52.769 Y16.073 E2.15488
G1 X53.479 Y15.450 E2.19244
G1 X54.118 Y15.010 E2.22327
G1 X54.874 Y14.579 E2.25790
G1 X55.852 Y14.175 E2.29996
G1 X56.842 Y13.893 E2.34091
G1 X57.643 Y13.768 E2.37313
G1 X58.628 Y13.706 E2.41237
G1 X146.058 Y13.706 E5.88883
G1 X147.042 Y13.768 E5.92804
G1 X148.596 Y14.097 E5.99118
G1 X148.834 Y14.175 E6.00115
G1 X149.812 Y14.579 E6.04321
G1 X150.568 Y15.010 E6.07781
G1 X151.916 Y16.072 E6.14604
G1 X152.091 Y16.246 E6.15587
G1 X153.154 Y17.595 E6.22416
G1 X153.374 Y17.960 E6.24110
G1 X153.989 Y19.330 E6.30081
G1 X154.067 Y19.567 E6.31074
G1 X154.396 Y21.121 E6.37391
G1 X154.459 Y22.106 E6.41314
G1 X154.459 Y106.150 E9.75495
G1 X154.386 Y107.208 E9.79711
G1 X154.047 Y108.739 E9.85945
G1 X153.967 Y108.976 E9.86942
G1 X153.264 Y110.470 E9.93508
G1 X153.135 Y110.681 E9.94490
G1 X152.864 Y111.088 E9.96435
G1 X152.088 Y112.004 E10.01209
G1 X151.912 Y112.180 E10.02197
G1 X150.589 Y113.226 E10.08903
G1 X149.809 Y113.674 E10.12480
G1 X148.884 Y114.059 E10.16465
G1 X148.648 Y114.139 E10.17454
G1 X147.116 Y114.478 E10.23696
G1 X146.057 Y114.551 E10.27914
G1 X58.629 Y114.551 E13.75552
G1 X57.828 Y114.507 E13.78740
G1 X57.220 Y114.431 E13.81176
G1 X56.040 Y114.140 E13.86010
G1 X55.803 Y114.059 E13.87007
G1 X54.308 Y113.357 E13.93573
G1 X54.098 Y113.227 E13.94555
G1 X53.884 Y113.090 E13.95566
G1 X52.775 Y112.180 E14.01270
G1 X52.062 Y111.405 E14.05458
G1 X51.552 Y110.682 E14.08976
G1 X51.422 Y110.471 E14.09961
G1 X50.719 Y108.976 E14.16527
G1 X50.430 Y107.988 E14.20623
G1 X50.271 Y106.948 E14.24804
G1 X50.228 Y106.150 E14.27984
G1 X50.228 Y22.106 E17.62165
G1 X50.264 Y21.380 E17.65053
G1 X50.310 Y20.943 E17.66800
G1 X50.619 Y19.568 E17.72405
G1 X50.683 Y19.373 E17.73222
G1 X51.104 Y19.464 F7800.000
G1 F1800
G1 X51.351 Y18.825 E17.75946
G1 X51.768 Y18.032 E17.79509
G1 X52.261 Y17.285 E17.83068
G1 X52.897 Y16.551 E17.86929
G1 X53.072 Y16.376 E17.87915
G1 X53.740 Y15.789 E17.91450
G1 X54.341 Y15.376 E17.94352
G1 X55.066 Y14.962 E17.97669
G1 X55.986 Y14.582 E18.01628
G1 X56.932 Y14.312 E18.05540
G1 X57.686 Y14.194 E18.08573
G1 X58.628 Y14.134 E18.12327
G1 X146.058 Y14.134 E21.59972
G1 X147.000 Y14.194 E21.63724
G1 X148.462 Y14.504 E21.69667
G1 X148.700 Y14.582 E21.70663
G1 X149.620 Y14.962 E21.74622
G1 X150.344 Y15.375 E21.77936
G1 X151.613 Y16.375 E21.84358
G1 X151.788 Y16.549 E21.85341
G1 X152.788 Y17.819 E21.91768
G1 X153.003 Y18.174 E21.93420
G1 X153.582 Y19.464 E21.99040
G1 X153.660 Y19.701 E22.00033
G1 X153.970 Y21.164 E22.05978
G1 X154.030 Y22.106 E22.09731
G1 X154.030 Y106.150 E25.43912
G1 X153.960 Y107.161 E25.47942
G1 X153.641 Y108.601 E25.53809
G1 X153.561 Y108.839 E25.54805
G1 X152.900 Y110.245 E25.60985
G1 X152.770 Y110.455 E25.61967
G1 X152.515 Y110.839 E25.63797
G1 X151.785 Y111.701 E25.68291
G1 X151.609 Y111.877 E25.69279
G1 X150.364 Y112.862 E25.75590
G1 X149.617 Y113.290 E25.79014
G1 X148.747 Y113.653 E25.82765
G1 X148.511 Y113.733 E25.83754
G1 X147.069 Y114.053 E25.89629
G1 X146.057 Y114.123 E25.93659
G1 X58.629 Y114.123 E29.41298
G1 X57.875 Y114.081 E29.44298
G1 X57.288 Y114.008 E29.46652
G1 X56.177 Y113.734 E29.51201
G1 X55.940 Y113.653 E29.52198
G1 X54.533 Y112.992 E29.58378
G1 X54.323 Y112.862 E29.59359
G1 X54.122 Y112.733 E29.60311
G1 X53.078 Y111.877 E29.65679
G1 X52.397 Y111.137 E29.69678
G1 X51.917 Y110.456 E29.72990
G1 X51.787 Y110.246 E29.73975
G1 X51.125 Y108.839 E29.80155
G1 X50.848 Y107.895 E29.84067
G1 X50.697 Y106.902 E29.88063
G1 X50.656 Y106.150 E29.91056
G1 X50.656 Y22.106 E33.25237
G1 X50.690 Y21.423 E33.27955
G1 X50.735 Y20.997 E33.29661
G1 X51.026 Y19.702 E33.34936
G1 X51.090 Y19.507 E33.35753
G1 X51.511 Y19.598 F7800.000
G1 F1800
G1 X51.743 Y18.999 E33.38306
G1 X52.133 Y18.256 E33.41647
G1 X52.603 Y17.542 E33.45044
G1 X53.200 Y16.854 E33.48664
G1 X54.001 Y16.129 E33.52963
G1 X54.565 Y15.741 E33.55683
G1 X55.257 Y15.345 E33.58854
G1 X56.120 Y14.989 E33.62566
G1 X57.022 Y14.731 E33.66296
G1 X57.728 Y14.620 E33.69139
G1 X58.628 Y14.562 E33.72723
G1 X146.058 Y14.562 E37.20368
G1 X146.957 Y14.620 E37.23950
G1 X148.328 Y14.911 E37.29522
G1 X148.566 Y14.989 E37.30518
G1 X149.429 Y15.345 E37.34229
G1 X150.120 Y15.741 E37.37398
G1 X151.310 Y16.678 E37.43418
G1 X151.485 Y16.852 E37.44401
G1 X152.423 Y18.043 E37.50427
G1 X152.633 Y18.389 E37.52037
G1 X153.175 Y19.598 E37.57306
G1 X153.253 Y19.835 E37.58299
G1 X153.544 Y21.207 E37.63872
G1 X153.602 Y22.106 E37.67455
G1 X153.602 Y106.150 E41.01637
G1 X153.534 Y107.114 E41.05478
G1 X153.235 Y108.464 E41.10979
G1 X153.155 Y108.702 E41.11975
G1 X152.535 Y110.020 E41.17769
G1 X152.405 Y110.230 E41.18750
G1 X152.166 Y110.590 E41.20466
G1 X151.482 Y111.398 E41.24679
G1 X151.306 Y111.574 E41.25667
G1 X150.139 Y112.497 E41.31584
G1 X149.426 Y112.907 E41.34855
G1 X148.610 Y113.247 E41.38371
G1 X148.374 Y113.327 E41.39361
G1 X147.021 Y113.627 E41.44868
G1 X146.057 Y113.694 E41.48711
G1 X58.629 Y113.694 E44.96349
G1 X57.922 Y113.655 E44.99162
G1 X57.356 Y113.585 E45.01433
G1 X56.314 Y113.328 E45.05698
G1 X56.077 Y113.248 E45.06694
G1 X54.758 Y112.627 E45.12488
G1 X54.548 Y112.498 E45.13470
G1 X54.360 Y112.377 E45.14362
G1 X53.381 Y111.574 E45.19395
G1 X52.731 Y110.869 E45.23206
G1 X52.281 Y110.231 E45.26310
G1 X52.151 Y110.021 E45.27295
G1 X51.531 Y108.702 E45.33088
G1 X51.266 Y107.802 E45.36819
G1 X51.123 Y106.855 E45.40629
G1 X51.085 Y106.150 E45.43435
G1 X51.085 Y22.106 E48.77616
G1 X51.117 Y21.466 E48.80164
G1 X51.160 Y21.050 E48.81827
G1 X51.433 Y19.836 E48.86773
G1 X51.497 Y19.641 E48.87590
G1 E46.87590 F2400.00000
G92 E0
G1 X140.780 Y99.374 F7800.000
G1 E2.00000 F2400.00000
G1 F1800
G1 X141.371 Y99.059 E2.02663
G1 X142.036 Y98.862 E2.05419
G1 X142.676 Y98.799 E2.07977
G1 X143.342 Y98.865 E2.10637
G1 X143.982 Y99.059 E2.13296
G1 X144.572 Y99.374 E2.15956
G1 X145.089 Y99.799 E2.18615
G1 X145.513 Y100.316 E2.21275
G1 X145.828 Y100.906 E2.23934
G1 X146.022 Y101.546 E2.26594
G1 X146.088 Y102.211 E2.29254
G1 X146.022 Y102.877 E2.31913
G1 X145.828 Y103.517 E2.34573
G1 X145.513 Y104.107 E2.37232
G1 X145.089 Y104.624 E2.39892
G1 X144.572 Y105.048 E2.42552
G1 X143.982 Y105.364 E2.45211
G1 X143.342 Y105.558 E2.47871
G1 X142.676 Y105.623 E2.50530
G1 X142.010 Y105.558 E2.53190
G1 X141.370 Y105.364 E2.55849
G1 X140.780 Y105.048 E2.58509
G1 X140.263 Y104.624 E2.61168
G1 X139.839 Y104.107 E2.63828
G1 X139.524 Y103.517 E2.66488
G1 X139.330 Y102.877 E2.69147
G1 X139.264 Y102.211 E2.71807
G1 X139.330 Y101.546 E2.74466
G1 X139.524 Y100.906 E2.77126
G1 X139.839 Y100.316 E2.79786
G1 X140.263 Y99.799 E2.82445
G1 X140.746 Y99.403 E2.84926
G1 X140.780 Y99.374 F7800.000
G1 E0.84926 F2400.00000
G92 E0
G1 X142.676 Y29.799 F7800.000
G1 E2.00000 F2400.00000
G1 F1800
G1 X142.010 Y29.734 E2.02660
G1 X141.370 Y29.540 E2.05319
G1 X140.780 Y29.224 E2.07979
G1 X140.263 Y28.800 E2.10638
G1 X139.839 Y28.283 E2.13298
G1 X139.524 Y27.693 E2.15958
G1 X139.330 Y27.053 E2.18617
G1 X139.264 Y26.387 E2.21277
G1 X139.330 Y25.722 E2.23936
G1 X139.524 Y25.082 E2.26596
G1 X139.839 Y24.492 E2.29255
G1 X140.263 Y23.975 E2.31915
G1 X140.780 Y23.550 E2.34575
G1 X141.371 Y23.235 E2.37238
G1 X142.036 Y23.039 E2.39993
G1 X142.676 Y22.975 E2.42551
G1 X143.342 Y23.041 E2.45211
G1 X143.982 Y23.235 E2.47871
G1 X144.572 Y23.550 E2.50530
G1 X145.089 Y23.975 E2.53190
G1 X145.513 Y24.492 E2.55849
G1 X145.828 Y25.082 E2.58509
G1 X146.022 Y25.722 E2.61168
G1 X146.088 Y26.387 E2.63828
G1 X146.022 Y27.053 E2.66488
G1 X145.828 Y27.693 E2.69147
G1 X145.513 Y28.283 E2.71807
G1 X145.089 Y28.800 E2.74466
G1 X144.572 Y29.224 E2.77126
G1 X143.982 Y29.540 E2.79786
G1 X143.342 Y29.734 E2.82445
G1 X142.721 Y29.795 E2.84926
G1 X142.676 Y29.799 F7800.000
G1 E0.84926 F2400.00000
G92 E0
G1 X59.409 Y105.965 F7800.000
G1 E2.00000 F2400.00000
G1 F1800
G1 X59.360 Y106.160 E2.00798
G1 X58.619 Y106.160 E2.03746
G1 X58.619 Y105.424 E2.06671
G1 X59.033 Y105.764 E2.08802
G1 X59.369 Y105.944 E2.10319
G1 E0.10319 F2400.00000
G92 E0
G1 X58.618 Y23.175 F7800.000
G1 E2.00000 F2400.00000
G1 F1800
G1 X58.618 Y22.096 E2.04292
G1 X60.155 Y22.096 E2.10404
G1 X60.187 Y22.316 E2.11289
G1 X59.775 Y22.438 E2.12995
G1 X59.033 Y22.834 E2.16342
G1 X58.653 Y23.147 E2.18299
G1 E0.18299 F2400.00000
G92 E0
G1 X140.267 Y50.316 F7800.000
G1 E2.00000 F2400.00000
G1 F1800
G1 X141.775 Y56.685 E2.26024
G1 X140.631 Y55.820 E2.31728
G1 X140.736 Y59.736 E2.47308
G1 X140.678 Y63.013 E2.60340
G1 X140.444 Y69.970 E2.88015
G1 X139.796 Y75.180 E3.08893
G1 X138.780 Y78.544 E3.22866
G1 X137.896 Y81.075 E3.33527
G1 X136.059 Y84.685 E3.49631
G1 X134.584 Y87.412 E3.61959
G1 X128.853 Y93.471 E3.95123
G1 X121.647 Y98.052 E4.29075
G1 X117.278 Y99.985 E4.48073
G1 X114.802 Y100.772 E4.58401
G1 X108.627 Y101.724 E4.83246
G1 X101.502 Y102.011 E5.11597
G1 X94.107 Y101.727 E5.41026
G1 X87.226 Y100.290 E5.68975
G1 X83.442 Y98.522 E5.85581
G1 X80.693 Y97.277 E5.97582
G1 X77.818 Y95.290 E6.11477
G1 X74.965 Y92.900 E6.26279
G1 X71.957 Y89.531 E6.44235
G1 X69.743 Y87.009 E6.57581
G1 X67.679 Y83.023 E6.75427
G1 X66.068 Y80.068 E6.88811
G1 X64.597 Y74.770 E7.10675
G1 X64.024 Y70.899 E7.26234
G1 X63.933 Y66.502 E7.43719
G1 X63.732 Y63.304 E7.56464
G1 X63.895 Y58.805 E7.74362
G1 X63.975 Y55.563 E7.87258
G1 X64.180 Y53.625 E7.95006
G1 X64.655 Y51.607 E8.03250
G1 X65.982 Y47.744 E8.19490
G1 X68.336 Y44.852 E8.34321
G1 X72.796 Y41.607 E8.56250
G1 X78.405 Y37.907 E8.82968
G1 X81.332 Y36.081 E8.96686
G1 X87.437 Y32.797 E9.24251
G1 X92.151 Y32.307 E9.43095
G1 X95.387 Y32.178 E9.55973
G1 X98.428 Y32.227 E9.68065
G1 X101.641 Y32.326 E9.80849
G1 X107.819 Y32.457 E10.05419
G1 X112.024 Y32.654 E10.22158
G1 X115.372 Y32.773 E10.35479
G1 X121.825 Y35.738 E10.63715
G1 X125.527 Y37.972 E10.80909
G1 X128.165 Y39.699 E10.93446
G1 X134.304 Y43.901 E11.23028
G1 X137.026 Y46.661 E11.38441
G1 X139.293 Y49.343 E11.52405
G1 X139.464 Y50.129 E11.55602
G1 X139.564 Y50.288 E11.56349
G1 X140.222 Y50.315 E11.58970
G1 X139.925 Y50.732 F7800.000
G1 F1800
G1 X141.083 Y55.625 E11.78964
G1 X140.303 Y55.034 E11.82856
G1 X140.151 Y55.134 E11.83580
G1 X140.188 Y55.282 E11.84186
G1 X140.308 Y59.738 E12.01912
G1 X140.250 Y63.002 E12.14893
G1 X140.016 Y69.936 E12.42478
G1 X139.375 Y75.091 E12.63133
G1 X138.372 Y78.411 E12.76926
G1 X137.501 Y80.907 E12.87436
G1 X135.680 Y84.486 E13.03403
G1 X134.234 Y87.158 E13.15485
G1 X128.578 Y93.138 E13.48214
G1 X121.444 Y97.674 E13.81827
G1 X117.126 Y99.584 E14.00604
G1 X114.704 Y100.353 E14.10707
G1 X108.585 Y101.297 E14.35324
G1 X101.502 Y101.582 E14.63511
G1 X94.159 Y101.300 E14.92730
G1 X87.362 Y99.881 E15.20339
G1 X83.621 Y98.133 E15.36758
G1 X80.905 Y96.903 E15.48614
G1 X78.078 Y94.949 E15.62278
G1 X75.264 Y92.591 E15.76877
G1 X72.278 Y89.247 E15.94703
G1 X70.100 Y86.765 E16.07833
G1 X68.058 Y82.822 E16.25490
G1 X66.467 Y79.906 E16.38697
G1 X65.017 Y74.681 E16.60260
G1 X64.452 Y70.863 E16.75606
G1 X64.361 Y66.485 E16.93019
G1 X64.161 Y63.298 E17.05715
G1 X64.323 Y58.818 E17.23538
G1 X64.403 Y55.591 E17.36375
G1 X64.604 Y53.697 E17.43948
G1 X65.067 Y51.726 E17.52000
G1 X66.362 Y47.956 E17.67851
G1 X68.634 Y45.165 E17.82157
G1 X73.040 Y41.960 E18.03825
G1 X78.637 Y38.268 E18.30483
G1 X81.548 Y36.452 E18.44125
G1 X87.566 Y33.214 E18.71298
G1 X92.182 Y32.735 E18.89752
G1 X95.392 Y32.607 E19.02527
G1 X98.418 Y32.656 E19.14559
G1 X101.630 Y32.754 E19.27339
G1 X107.805 Y32.885 E19.51896
G1 X112.007 Y33.082 E19.68622
G1 X115.271 Y33.198 E19.81612
G1 X121.624 Y36.117 E20.09411
G1 X125.299 Y38.335 E20.26478
G1 X127.927 Y40.055 E20.38966
G1 X134.028 Y44.232 E20.68366
G1 X136.709 Y46.951 E20.83549
G1 X138.897 Y49.539 E20.97024
G1 X139.112 Y50.527 E21.01045
G1 X139.205 Y50.523 E21.01416
G1 X139.321 Y50.708 E21.02282
G1 X139.880 Y50.730 E21.04508
G1 X139.583 Y51.147 F7800.000
G1 F1800
G1 X140.392 Y54.564 E21.18471
G1 X139.752 Y54.080 E21.21661
G1 X139.725 Y54.130 E21.21888
G1 X139.506 Y53.993 E21.22918
G1 X139.551 Y54.357 E21.24379
G1 X139.652 Y54.903 E21.26583
G1 X139.761 Y55.340 E21.28377
G1 X139.879 Y59.740 E21.45879
G1 X139.821 Y62.991 E21.58808
G1 X139.589 Y69.902 E21.86302
G1 X138.954 Y75.002 E22.06736
G1 X137.964 Y78.279 E22.20348
G1 X137.106 Y80.738 E22.30706
G1 X135.300 Y84.287 E22.46537
G1 X133.884 Y86.905 E22.58373
G1 X128.303 Y92.805 E22.90667
G1 X121.241 Y97.295 E23.23940
G1 X116.974 Y99.183 E23.42496
G1 X114.606 Y99.935 E23.52375
G1 X108.544 Y100.870 E23.76764
G1 X101.502 Y101.153 E24.04788
G1 X94.212 Y100.873 E24.33797
G1 X87.499 Y99.471 E24.61065
G1 X83.800 Y97.743 E24.77295
G1 X81.117 Y96.529 E24.89009
G1 X78.338 Y94.608 E25.02440
G1 X75.563 Y92.283 E25.16837
G1 X72.599 Y88.963 E25.34532
G1 X70.456 Y86.522 E25.47448
G1 X68.436 Y82.621 E25.64915
G1 X66.867 Y79.744 E25.77944
G1 X65.437 Y74.592 E25.99207
G1 X64.880 Y70.827 E26.14339
G1 X64.789 Y66.467 E26.31680
G1 X64.590 Y63.292 E26.44328
G1 X64.752 Y58.831 E26.62077
G1 X64.831 Y55.619 E26.74855
G1 X65.027 Y53.769 E26.82251
G1 X65.479 Y51.845 E26.90111
G1 X66.743 Y48.167 E27.05574
G1 X68.931 Y45.479 E27.19355
G1 X73.285 Y42.312 E27.40763
G1 X78.868 Y38.629 E27.67360
G1 X81.763 Y36.823 E27.80925
G1 X87.694 Y33.632 E28.07707
G1 X92.213 Y33.162 E28.25770
G1 X95.397 Y33.036 E28.38443
G1 X98.408 Y33.084 E28.50415
G1 X101.619 Y33.182 E28.63191
G1 X107.790 Y33.314 E28.87734
G1 X111.989 Y33.510 E29.04448
G1 X115.170 Y33.623 E29.17106
G1 X121.423 Y36.497 E29.44468
G1 X125.071 Y38.698 E29.61408
G1 X127.689 Y40.411 E29.73848
G1 X133.752 Y44.562 E30.03066
G1 X136.392 Y47.240 E30.18020
G1 X138.501 Y49.734 E30.31006
G1 X138.737 Y50.821 E30.35428
G1 X138.796 Y50.967 E30.36056
G1 X138.974 Y50.961 E30.36765
G1 X139.078 Y51.127 E30.37545
G1 X139.538 Y51.145 E30.39376
G1 X139.883 Y51.130 F7800.000
G1 E28.39376 F2400.00000
G92 E0
G1 X146.068 Y28.957 F7800.000
G1 E2.00000 F2400.00000
G1 F1800
G1 X146.067 Y99.641 E4.81055
G1 X145.698 Y99.190 E4.83373
G1 X145.050 Y98.658 E4.86704
G1 X144.311 Y98.264 E4.90035
G1 X143.510 Y98.020 E4.93366
G1 X142.676 Y97.938 E4.96697
G1 X141.871 Y98.018 E4.99914
G1 X141.044 Y98.262 E5.03340
G1 X140.302 Y98.658 E5.06687
G1 X139.654 Y99.190 E5.10018
G1 X139.123 Y99.837 E5.13349
G1 X138.728 Y100.576 E5.16680
G1 X138.485 Y101.378 E5.20011
G1 X138.403 Y102.211 E5.23342
G1 X138.485 Y103.045 E5.26672
G1 X138.728 Y103.847 E5.30003
G1 X139.123 Y104.585 E5.33334
G1 X139.654 Y105.233 E5.36665
G1 X140.302 Y105.764 E5.39995
G1 X140.678 Y105.965 E5.41691
G1 X140.629 Y106.160 E5.42488
G1 X63.454 Y106.160 E8.49357
G1 X63.405 Y105.965 E8.50155
G1 X63.781 Y105.764 E8.51850
G1 X64.429 Y105.233 E8.55181
G1 X64.960 Y104.585 E8.58512
G1 X65.355 Y103.847 E8.61842
G1 X65.598 Y103.045 E8.65173
G1 X65.680 Y102.211 E8.68504
G1 X65.598 Y101.378 E8.71835
G1 X65.355 Y100.576 E8.75166
G1 X64.960 Y99.837 E8.78497
G1 X64.429 Y99.190 E8.81827
G1 X63.781 Y98.658 E8.85158
G1 X63.042 Y98.264 E8.88489
G1 X62.241 Y98.020 E8.91820
G1 X61.407 Y97.938 E8.95151
G1 X60.602 Y98.018 E8.98367
G1 X59.775 Y98.262 E9.01794
G1 X59.033 Y98.658 E9.05141
G1 X58.619 Y98.999 E9.07273
G1 X58.618 Y29.600 E11.83220
G1 X59.033 Y29.940 E11.85355
G1 X59.772 Y30.335 E11.88686
G1 X60.573 Y30.578 E11.92017
G1 X61.407 Y30.661 E11.95348
G1 X62.241 Y30.578 E11.98679
G1 X63.042 Y30.335 E12.02010
G1 X63.781 Y29.940 E12.05340
G1 X64.429 Y29.409 E12.08671
G1 X64.960 Y28.761 E12.12002
G1 X65.355 Y28.023 E12.15333
G1 X65.598 Y27.221 E12.18664
